X:17
T:Les septs sauts
R:---
C:Alsace
I:abc2nwc
M:2/4
L:1/16
K:C
cdef g2g2|f2d2 e2c2|cdef g2g2|f2d2 c4:|
|:d2dd d2d2|e2g2 c4|d2dd d2d2|e2g2 c2
|:g2||e6:|g2 |]

%%footer $D   Galouvielle-MBe 2006 \n--- (France)
